src/assets/icons/forward.svg

<svg width="16" height="19" viewBox="0.008 0 15.984 19" fill="current"><svg xmlns="http://www.w3.org/2000/svg" width="16" height="19" viewBox="0 0 15.9 18.9"><path paint-order="stroke fill markers" fill-rule="evenodd" d="M11.5 4.5L7 0v3.1c-3.9.5-7 3.8-7 7.9 0 4.1 3.1 7.4 7 7.9v-2C4.2 16.4 2 14 2 11c0-3 2.2-5.4 5-5.9V9l4.5-4.5zm4.4 5.5c-.2-1.4-.7-2.7-1.6-3.9l-1.4 1.4c.5.8.9 1.6 1 2.5h2zM9 16.9v2c1.4-.2 2.7-.7 3.9-1.6l-1.4-1.4c-.8.5-1.6.9-2.5 1zm3.9-2.4l1.4 1.4c.9-1.2 1.5-2.5 1.6-3.9h-2c-.1.9-.5 1.7-1 2.5z"/></svg></svg>

<svg width="16" height="19" viewBox="0 0 16 19" fill="none" xmlns="http://www.w3.org/2000/svg">
<path fill-rule="evenodd" clip-rule="evenodd" d="M11.5 4.5L7 0V3.1C3.1 3.6 0 6.9 0 11C0 15.1 3.1 18.4 7 18.9V16.9C4.2 16.4 2 14 2 11C2 8 4.2 5.6 7 5.1V9L11.5 4.5ZM15.9 10C15.7 8.6 15.2 7.3 14.3 6.1L12.9 7.5C13.4 8.3 13.8 9.1 13.9 10H15.9ZM9 16.9V18.9C10.4 18.7 11.7 18.2 12.9 17.3L11.5 15.9C10.7 16.4 9.9 16.8 9 16.9ZM12.9 14.5L14.3 15.9C15.2 14.7 15.8 13.4 15.9 12H13.9C13.8 12.9 13.4 13.7 12.9 14.5Z" fill="#556C86"/>
</svg>
